X:1
T:Prelude
T:Prelude
T:Op. 28 No. 16
T:Frédéric Chopin
C:Frédéric Chopin
%%score { 1 | ( 2 3 ) }
L:1/8
Q:1/4=95
M:2/2
K:Db
V:1 treble nm="鋼琴" snm="Pno."
V:2 bass 
V:3 bass 
V:1
!f! (3(!>![E=Ag]2[Q:1/4=120] !>![EAf]2"_rubato"[Q:1/4=130] !>![_EA=e]2[Q:1/4=155] (3!>![EA_e]2[Q:1/4=180] !>![EAd]2[Q:1/4=30] !>![EAc]2) || %1
[Q:1/4=186]"^Presto con fuoco"!mp!!<(! (f/c/e/d/ F/=A/B/c/ d/e/f/=g/ =a/b/c'/d'/ | %2
!8va(! e'/f'/=g'/=a'/ b'/c''/d''/e''/ =e''/!<)!!f!f''/!>(!_e''/d''/ c''/b'/a'/!>)!b'/) | %3
!>(! (_a'/g'/f'/=e'/!8va)! f'/_e'/d'/c'/ b/=a/b/_a/!>)!!mp! g/f/=e/d/ | %4
 c/d/e/f/ g/a/b/c'/ b/a/g/f/ e/d/c/e/ | g/=d/f/e/!<(! c/G/=B/c/ _d/c/=d/e/ f/e/=e/f/) | %6
 (a/g/=a/b/ d'/c'/d'/=d'/!8va(! f'/e'/=e'/f'/ =a'/b'/_a'/=g'/!<)! | %7
!f!!>(! _g'/f''/e''/e'/ d''/c''/c'/b'/ =a'/=a/_a'/g'/!8va)! g/f'/e'/(g/ | %8
 f/)e'/d'/f/ d'/c'/e/c'/ d/b/a/c/ a/g/B/g/)!>)! | %9
!mp! (=A/B/c/d/"_cresc." e/=e/f/g/ e/f/=d/_e/ c/_d/c/B/) | %10
 (=A/B/c/d/ e/=e/f/g/ e/f/=d/_e/ c/_d/c/B/) | (=B/c/=d/e/ =e/f/=g/a/ ^f/g/e/=f/ d/_e/d/c/) | %12
 (=B/c/=d/e/ =e/f/=g/a/ ^f/g/e/=f/ d/_e/d/c/) | %13
 (_d/e/f/!f!!<(!g/ a/b/=b/c'/ ^c'/=d'/!<)!!>(!f'/e'/ =c'/=a/g/e/)!>)! | %14
!f! (_d/e/f/!<(!g/ a/b/=b/c'/ d'/c'/!<)!!>(!e'/d'/ _b/=g/=e/d/)!>)! | %15
!f! (c/d/!<(!=d/e/ =e/f/g/=g/!<)!!>(! a/=a/c'/b/ _g/f/_e/!>)!_d/ | %16
!f! c/B/=A/c/!<(! G/F/=E/F/ G/F/B/A/ d/c/_a/g/)!<)! | %17
!ff! (f/c/e/d/!<(! F/=A/B/c/ d/e/f/=g/ =a/b/c'/d'/ | %18
!8va(! e'/f'/=g'/=a'/ b'/c''/d''/e''/!<)!!fff! =e''/!>(!f''/_e''/d''/ c''/b'/a'/b'/ | %19
 _a'/g'/f'/=e'/!8va)! f'/_e'/d'/c'/ b/=a/b/_a/ g/f/=e/!>)!d/) | %20
!f!!<(! (c/d/e/f/ g/a/b/c'/ b/a/g/f/ e/d/c/e/!<)! | %21
!ff! g/=d/_f/e/ c/G/=B/c/!<(! _d/c/=d/e/ f/e/=e/=f/) | %22
 (a/_g/=b/c'/!8va(! _d'/c'/=d'/e'/ _f'/e'/=e'/=f'/ a'/b'/a'/=g'/!<)! | %23
!fff!!>(! _g'/f''/e''/g'/ e''/d''/f'/d''/ c''/e'/c''/b'/ d'/b'/a'/c'/ | %24
 a'/g'/b/g'/!8va)! f'/a/f'/e'/ g/e'/d'/f/ b/a/f/d/)!>)! | %25
!mf!!<(! (c/d/e/=e/ f/g/a/__b/!<)!!f!!>(! =g/a/_e/_f/ A/f/e/d/)!>)! | %26
!mf!!<(! (c/d/e/=e/ =f/g/a/__b/!<)!!f!!>(! =g/a/_e/_f/ A/f/d/_c/)!>)! | %27
!mf!!<(! (^A/=B/^c/=d/ ^d/=e/^f/=g/!<)!!f!!>(! ^e/f/^d/=e/ ^c/=d/B/=A/)!>)! | %28
!mf!!<(! (^G/=A/=B/c/ ^c/=d/=e/=f/!<)!!f!!>(! ^d/e/c/=d/ B/=c/B/A/)!>)! | %29
!mf! (^G/"^stretto"=A/_d/c/ B/A/_g/f/ e/d/)(c'/b/ _a/g/f/e/ | %30
 d/c/)(b/a/ g/f/e/d/ c/B/)(a/g/ f/e/d/c/ | %31
 B/=A/_A/=G/)!>(! (A/G/_G/F/)!>)!!>(! (=G/_G/F/=E/)!>)!!>(! (G/F/E/_E/)!>)! | %32
!>(! (F/=E/_E/=D/)!>)!!>(! (=E/_E/D/_D/)!>)!!>(! (E/=D/_D/C/)!>)!!>(! (E/D/C/B,/)!>)! | %33
"^sempre più animato"!mf!!<(! (=A,/B,/C/D/ E/=E/F/G/!<)!!ff!!>(! E/F/=D/_E/ C/_D/C/B,/)!>)! | %34
!mf!!<(! (=A,/B,/C/D/ E/=E/F/G/!<)!!ff!!>(! E/F/=D/_E/ C/_D/C/B,/)!>)! | %35
!<(! (C/D/E/F/ G/c/B/!<)!C/!<(! B,/C/D/E/ F/c/B/!<)!G/) | %36
!<(! (=E/F/G/F/ B/=A/g/f/!<)!!ff!!>(! _e/d/B/F/ _E/D/B,/!>)!!mf!F,/) | %37
!mf!!<(! (=A,/B,/C/D/ E/=E/F/G/!<)!!ff!!>(! E/F/=D/_E/ C/_D/C/B,/)!>)! | %38
!mf!!<(! (=A,/B,/C/D/ E/=E/F/G/!<)!!ff!!>(! E/F/=D/_E/ C/_D/C/!>)!!mf!B,/) | %39
 (_C/D/E/_F/ G/!<(!A/B/_c/ d/e/_f/g/ a/b/_c'/d'/!<)! | %40
!ff! _f'/!>(!e'/_c'/a/ g/e/_c/A/ G/E/_C/A,/!>)![K:bass]!mf! G,/E,/_C,/A,,/) | %41
!mf! (=E,,/F,,/B,,/=A,,/ G,,/F,,/D,/C,/ B,,/A,,/G,/F,/ D,/"_molto cresc."C,/B,/=A,/ | %42
 G,/F,/D/C/[K:treble] B,/=A,/G/F/ D/C/B/=A/ G/F/d/c/ | B/=A/g/f/ d/c/b/=a/ g/f/d'/c'/ b/a/g'/f'/ | %44
!f!!8va(! d'/c'/b'/=a'/ g'/f'/d''/c''/ !wedge!f'')!8va)! z [E=Af]2 | %45
 .[Bb]2[Q:1/4=20] z2[Q:1/4=160] z4 |] %46
V:2
 (3!>![F,,,F,,]2 [C,F,C]2 [C,F,C]2 (3[C,F,C]2 [C,F,C]2 [C,F,C]2 || %1
!ped! (B,,[F,D])!ped-up! z F,,!ped! (B,,[F,D])!ped-up! z F,, | %2
!ped! (B,,[F,D])!ped-up! z F,,!ped! (B,,[F,D])!ped-up! z F,, | %3
!ped! (B,,[F,D])!ped-up! z F,,!ped! (B,,[F,D])!ped-up! z F,, | %4
!ped! (B,,[E,G,E])!ped-up! z B,,,!ped! (B,,[E,G,E])!ped-up! z B,,, | %5
!ped! (B,,[E,G,E])!ped-up! z B,,,!ped! (B,,[E,G,E])!ped-up! z B,,, | %6
!ped! (B,,[E,G,E])!ped-up! z B,,,!ped! (B,,[E,G,E])!ped-up! z B,, | %7
!ped! (=A,,[G,E])!ped-up! z =A,,,!ped! (A,,[G,E])!ped-up! z A,, | %8
!ped! (B,,[F,D])!ped-up! z B,,!ped! (D,[F,B,F])!ped-up! z (D, | %9
!ped! E,[=A,G])!ped-up! z (E,!ped! D,[F,B,F])!ped-up! z (D, | %10
!ped! E,[=A,G])!ped-up! z (E,!ped! D,[F,B,F])!ped-up! z (D, | %11
!ped! F,[=B,A])!ped-up! z (F,!ped! E,[=G,C=G])!ped-up! z (E, | %12
!ped! F,[=B,A])!ped-up! z (F,!ped! E,[=G,C=G])!ped-up! z (E, | %13
!ped! F,[A,DA])!ped-up! z (F,!ped! G,[=A,C=A])!ped-up! z (G, | %14
!ped! F,[A,DA])!ped-up! z (F,!ped! =E,[B,D=G])!ped-up! z (E, | %15
!ped! _E,[=A,C_G])!ped-up! z (E,!ped! D,[F,B,F]) z2!ped-up! | %16
!ped! F,, z !arpeggio![C,E,=A,E]2 z4!ped-up! | %17
!ped! [B,,,B,,][D,F,D]!ped-up! z ([F,,,F,,]!ped! [B,,,B,,])[D,F,D]!ped-up! z ([F,,,F,,] | %18
!ped! [B,,,B,,])!ped-up![D,F,D] z ([F,,,F,,]!ped! [B,,,B,,])[D,F,D]!ped-up! z ([F,,,F,,] | %19
!ped! [B,,,B,,])!ped-up![D,F,D] z ([F,,,F,,]!ped! [B,,,B,,])[D,F,D]!ped-up! z ([F,,,F,,] | %20
!ped! [B,,,B,,])[E,G,E]!ped-up! z ([F,,,F,,]!ped! [B,,,B,,])[E,G,E]!ped-up! z ([F,,,F,,] | %21
!ped! [__B,,,__B,,])[E,G,E]!ped-up! z ([E,,,E,,]!ped! [B,,,B,,])[E,G,E]!ped-up! z ([_E,,,_E,,] | %22
!ped! [__B,,,__B,,])[E,G,E]!ped-up! z ([E,,,E,,]!ped! [B,,,B,,])[E,G,E]!ped-up! z ([E,,,E,,] | %23
!ped! [A,,,A,,])[E,CG]!ped-up! z ([E,,,E,,]!ped! [A,,,A,,])[E,CG]!ped-up! z (A,,, | %24
!ped! A,,)[F,DF]!ped-up! z (A,,,!ped! A,,)[F,D]!ped-up! z (A,,, | %25
!ped! A,,)[E,G,C]!ped-up! z (A,,,!ped! A,,)[_F,D]!ped-up! z (A,,, | %26
!ped! A,,)[E,G,C]!ped-up! z (A,,!ped! D,)[_F,D]!ped-up! z (=G,, | %27
!ped! ^F,,)[^F,^A,=E]!ped-up! z (^F,,,!ped! F,,)[F,=B,=D]!ped-up! z (=F,, | %28
!ped! =E,,)[=E,^G,=D]!ped-up! z (=E,,,!ped! E,,)[E,=A,=C]!ped-up! z [E,,,E,,] | %29
!ped! !>![F,,,F,,] z !arpeggio![C,F,E]2!ped-up!!ped! !arpeggio![B,,F,D]2!ped-up!!ped! !arpeggio![E,B,G]2!ped-up! | %30
!ped! !arpeggio![A,,G,C]2!ped-up!!ped! !arpeggio![D,A,F]2!ped-up!!ped! !arpeggio![G,,D,B,]2!ped-up!!ped! !arpeggio![C,G,E]2!ped-up! | %31
 [D,F,B,D]2 [E,_G,B,C]2 z2 (G,/F,/=E,/_E,/) | %32
 (F,/=E,/_E,/=D,/) (=E,/_E,/D,/_D,/) (E,/=D,/_D,/C,/) (E,/D,/C,/B,,/) | %33
!ped! (E,,[=A,,G,])!ped-up! z (E,,!ped! D,,)[B,,F,]!ped-up! z (D,, | %34
!ped! E,,)[=A,,G,]!ped-up! z (E,,!ped! D,,)[B,,F,]!ped-up! z (D,, | %35
!ped! E,,)[B,,G,]!ped-up! z (E,,!ped! F,,)[D,B,]!ped-up! z (F,,, | %36
!ped! F,,)[E,=A,]!ped-up! z (F,,!ped! B,,)[F,D]!ped-up! z (D,, | %37
!ped! E,,)[=A,,G,]!ped-up! z (E,,!ped! D,,)[B,,F,]!ped-up! z (D,, | %38
!ped! E,,)[=A,,G,]!ped-up! z (E,,!ped! D,,)[B,,F,]!ped-up! z D,, | %39
!ped! !arpeggio![E,,_C,G,]2 z2 !arpeggio![E,G,_CG]2!ped-up!!ped! !arpeggio![D,G,B,_F]2!ped-up! | %40
!ped! E4 z4!ped-up! | %41
 (=E,,,/F,,,/B,,,/=A,,,/ G,,,/F,,,/D,,/C,,/ B,,,/A,,,/G,,/F,,/ D,,/C,,/B,,/=A,,/ | %42
 G,,/F,,/D,/C,/ B,,/=A,,/G,/F,/ D,/C,/B,/=A,/ G,/F,/D/C/ | %43
 B,/=A,/G/F/[K:treble] D/C/B/=A/ G/F/d/c/ B/A/g/f/ | %44
 d/c/b/=a/ g/f/d'/c'/!ped! !wedge!f') z!ped-up![K:bass]!ped! !>!.[F,,F,]2!ped-up! | %45
!ped!{/B,,,} .[B,,F,D]2 z2!ped-up! z4 |] %46
V:3
 x8 || x8 | x8 | x8 | x8 | x8 | x8 | x8 | x8 | x8 | x8 | x8 | x8 | x8 | x8 | x8 | x8 | x8 | x8 | %19
 x8 | x8 | x8 | x8 | x8 | x8 | x8 | x8 | x8 | x8 | x8 | x8 | x8 | x8 | x8 | x8 | x8 | x8 | x8 | %38
 x8 | x8 | !arpeggio![_C,G,]2 z2 x4 | x8 | x8 | x2[K:treble] x6 | x6[K:bass] x2 | x8 |] %46

